img/map-icon.svg

<svg xmlns="http://www.w3.org/2000/svg" width="57.335" height="57.335">
  <path fill="none" stroke="#FFF" stroke-width="2" d="M20.999 1C32.045 1 41 9.954 41 21c0 11.045-8.955 20-20.001 20C9.954 41 1 32.045 1 21 1 9.954 9.954 1 20.999 1z"/>
  <path fill="#FFF" fill-rule="evenodd" d="M27.648 21.697l-5.988 9.997a.645.645 0 0 1-.548.314h-.005a.645.645 0 0 1-.548-.305l-6.144-9.901a7.724 7.724 0 0 1-1.156-4.07c0-4.268 3.473-7.74 7.74-7.74 4.269 0 7.74 3.472 7.74 7.74 0 1.399-.377 2.77-1.091 3.965zm-6.649-10.424c-3.556 0-6.458 2.902-6.458 6.459 0 1.202.341 2.374.971 3.39l5.585 9.002 5.444-9.089a6.449 6.449 0 0 0 .913-3.303c0-3.557-2.898-6.459-6.455-6.459zm0 10.329a3.865 3.865 0 0 1-3.869-3.87 3.874 3.874 0 0 1 3.869-3.87 3.874 3.874 0 0 1 3.871 3.87 3.863 3.863 0 0 1-3.871 3.87zm0-6.459a2.598 2.598 0 0 0-2.588 2.589 2.586 2.586 0 1 0 5.173 0 2.594 2.594 0 0 0-2.585-2.589z"/>
</svg>

<svg
 xmlns="http://www.w3.org/2000/svg"
 xmlns:xlink="http://www.w3.org/1999/xlink"
 width="1.517cm" height="1.517cm">
<path fill-rule="evenodd"  stroke="rgb(255, 255, 255)" stroke-width="2px" stroke-linecap="butt" stroke-linejoin="miter" fill="none"
 d="M20.999,1.000 C32.045,1.000 41.000,9.954 41.000,21.000 C41.000,32.045 32.045,41.000 20.999,41.000 C9.954,41.000 1.000,32.045 1.000,21.000 C1.000,9.954 9.954,1.000 20.999,1.000 Z"/>
<path fill-rule="evenodd"  fill="rgb(255, 255, 255)"
 d="M27.648,21.697 L21.660,31.694 C21.545,31.887 21.337,32.006 21.112,32.008 C21.110,32.008 21.109,32.008 21.107,32.008 C20.884,32.008 20.677,31.893 20.559,31.703 L14.415,21.802 C13.659,20.581 13.259,19.174 13.259,17.732 C13.259,13.464 16.732,9.992 20.999,9.992 C25.268,9.992 28.739,13.464 28.739,17.732 C28.739,19.131 28.362,20.502 27.648,21.697 ZM20.999,11.273 C17.443,11.273 14.541,14.175 14.541,17.732 C14.541,18.934 14.882,20.106 15.512,21.122 L21.097,30.124 L26.541,21.035 C27.135,20.040 27.454,18.898 27.454,17.732 C27.454,14.175 24.556,11.273 20.999,11.273 ZM20.999,21.602 C18.838,21.602 17.130,19.852 17.130,17.732 C17.130,15.598 18.866,13.862 20.999,13.862 C23.134,13.862 24.870,15.598 24.870,17.732 C24.870,19.829 23.188,21.602 20.999,21.602 ZM20.999,15.143 C19.577,15.143 18.411,16.309 18.411,17.732 C18.411,19.158 19.570,20.320 20.999,20.320 C22.452,20.320 23.584,19.137 23.584,17.732 C23.584,16.309 22.422,15.143 20.999,15.143 Z"/>
</svg>
